X: 1
T: Ruidhlidh na Coillich Dhubha
T: Dance of the Black Grouse
C: trad. Scotland / Cape Breton
R: reel
Z: 2020 John Chambers <jc:trillian.mit.edu>
S: Email from Sue Chari 2020-8-20
M: C|
L: 1/8
K: A
[| e2cB AAAc | f2fa eccd | e2cB AAAc | f2ec B2cd |
|  e2cB AAAc | f2fa eccd | e2cB AAAc | f2ec B2BA ||
|| BccB c2ce | faf2 eccB | BccB c2ce | f2ec BBBA |
|  BccB c2ce | faf2 eccB | BccB Bcce | f2ec B2cd |]
